icons/Activity-Square.svg

<svg width="24" height="24" viewBox="0 0 24 24" fill="none" xmlns="http://www.w3.org/2000/svg">
<g id="Activity-Square">
<path id="Vector" d="M7 14.14L9.21 11.31C9.34264 11.1378 9.51305 10.9983 9.7081 10.9023C9.90315 10.8064 10.1176 10.7565 10.335 10.7565C10.5524 10.7565 10.7669 10.8064 10.9619 10.9023C11.1569 10.9983 11.3274 11.1378 11.46 11.31L12.54 12.69C12.6726 12.8622 12.8431 13.0017 13.0381 13.0977C13.2331 13.1936 13.4476 13.2435 13.665 13.2435C13.8824 13.2435 14.0969 13.1936 14.2919 13.0977C14.4869 13.0017 14.6574 12.8622 14.79 12.69L17 9.86" stroke="#00153F" stroke-width="1.5" stroke-linecap="round" stroke-linejoin="round"/>
<path id="Vector_2" d="M17 3H7C4.79086 3 3 4.79086 3 7V17C3 19.2091 4.79086 21 7 21H17C19.2091 21 21 19.2091 21 17V7C21 4.79086 19.2091 3 17 3Z" stroke="#00153F" stroke-width="1.5" stroke-linecap="round" stroke-linejoin="round"/>
</g>
</svg>

<svg xmlns="http://www.w3.org/2000/svg" fill="none" viewBox="0 0 24 24"><g stroke="currentColor" stroke-linecap="round" stroke-linejoin="round" stroke-width="1.5"><path d="m7 14.14 2.21-2.83a1.42 1.42 0 0 1 2.25 0l1.08 1.38a1.42 1.42 0 0 0 2.25 0L17 9.86"/><path d="M17 3H7a4 4 0 0 0-4 4v10a4 4 0 0 0 4 4h10a4 4 0 0 0 4-4V7a4 4 0 0 0-4-4Z"/></g></svg>
